!!!!SEGMENT: pl-wnifc--6804-n_sonnenfeld-adolf-gustaw--souvenir-de-wilna-op-83.krn
!!!cenid: 18xx:4054
!!!COM: Sonnenfeld, Adolf Gustaw
!!!COM-rismID: pe50043749
!!!CDT:
!!!CNT:
!!!OTL: Souvenir de Wilna op. 83
!!!PDT:
!!!AGN:
!!!YEC: Copyright 2022 Narodowy Instytut Fryderyka Chopina (https://polishscores.org)
!!!YEM: License CC-BY-4.0 (https://creativecommons.org/licenses/by/4.0)
!!!SMS-siglum: PL-Wnifc
!!!SMS-shelfmark: 6804/n
!!!SMS-shelfwork: W
!!!SMS-variant:
!!!SMS-altvar:
!!!NIFC-rismSourceID: 1001158371
!!!NIFC-rismChildID: 1001158371
!!!NIFC-islandoraID: nifc:213573
!!!URL-pdf-islandora: https://repozytorium.nifc.pl/islandora/object/nifc%3A213573/datastream/PDF/view
!!!URL-scan: https://polish.musicsources.pl/pl/lokalizacje/galeria/druki-muzyczne/16924-souvenir-de-wilna/2 @EN{Scan on Polish Music Sources Website} @PL{Skany w portalu Dziedzictwo Muzyki Polskiej w otwartym dostępie}
!!!IIIF:
!!!ONB-nifc:
!!!AIN: 2 piano
!!!key: D
**kern	**kern	**dynam
*part2	*part1	*
*staff2	*staff1	*
*I"Pianoforte	*I"Pianoforte	*
*I'pf	*I'pf	*
*ICklav	*ICklav	*
*Ipiano	*Ipiano	*
*>[A,A1,A,A2,B,B1,B,B2,C,C1,C,C2,D,D1,D,D2,E]	*>[A,A1,A,A2,B,B1,B,B2,C,C1,C,C2,D,D1,D,D2,E]	*>[A,A1,A,A2,B,B1,B,B2,C,C1,C,C2,D,D1,D,D2,E]
*>A	*>A	*>A
*clefF4	*clefG2	*
*k[f#c#]	*k[f#c#]	*
*D:	*D:	*
*M2/4	*M2/4	*
!	!LO:TX:a:B:t=INTRODUCTION.	!
8A\	8a/	f
=1	=1	=1
16A\LL	16a/LL	<
16F#\J	16f#/J	.
8A\J	8a/J	.
8d\L	8dd\L	.
8A\J	8a\J	[[
=2	=2	=2
4f#\	4ff#\	.
4r	4r	.
=3	=3	=3
*	*	*^
!	!	!	!LO:DY:b=2
8AA\ 8C# 8E 8G	8cc#\ 8ee 8aa	fz	fz
8r	8r	.	.
!	!	!	!LO:DY:b=2
!	!	!	!LO:HP:b=2
8A\	8a/	p >	p >
8r	8r	.	.
=4	=4	=4	=4
8A\	8a/	.	.
8r	8r	]	]
8r;	8r;	.	.
8r	8f#/	p	.
*	*	*v	*v
=5!|:	=5!|:	=5!|:
!	!LO:TX:b:i:t=dolce	!
.	(8qg/	.
8BB\L	16f#/LL)	.
.	16e#X/J	.
8F#\J 8A 8d	8f#/J	.
8F#\L	8f#/L 8b	<
8A\J 8d	8f#/J 8b	[[
=6	=6	=6
8D\L	4f#/ 4a	>
8F#\ 8A 8d	.	.
8F#\J 8A 8d	8r	]
8r	8f#/	.
=7	=7	=7
.	(8qg/	.
8D\L	16f#/LL)	.
.	16e#X/J	.
8F#\J 8A 8d	8f#/J	<
8F#\L	8f#/L 8dd	.
8A\J 8d	8f#/J 8dd	[[
!!LO:LB:g=original	!	!
=8	=8	=8
8E\L	4g/ 4cc#	>
8G\ 8B	.	.
8G\J 8B	8r	]
8r	8g/ 8b	.
=9	=9	=9
.	(8qcc#/	<
8GG/L	16g/LL) 16b	.
.	16a#X/J	.
8BB/J 8E	8b/J	.
8GG/L	8g/L 8cc#	.
8BB/J 8E	8g/J 8cc#	[[
=10	=10	=10
8AA\L	8g/L 8b	>
8C#\ 8G	8g/J 8b	.
8C#\J 8G	8e/L 8g	.
8r	8g/J 8b	]]
=11	=11	=11
.	(8qcc#/	<
8C#\L	16g/LL) 16b	.
.	16a#X/J	.
8E\J 8G 8A	8b/J	.
8AA\L	8g/L 8cc#	.
8E\J 8G 8A	8g/J 8cc#	[[
=12	=12	=12
8D\L	8f#/L 8b	>
8F#\ 8A	8f#/J 8b	.
8F#\J 8A	8f#/L 8a	.
8r	8f#/J	]]
=13	=13	=13
.	(8qg/	.
8D\L	16f#/LL)	p
.	16e#X/J	.
8F#\J 8A 8d	8f#/J	.
!	!LO:TX:b:i:t=dolce	!LO:HP:a
8F#\L	8f#/L 8b	<
8A\J 8d	8f#/J 8b	[[
=14	=14	=14
!	!	!LO:HP:a
8D\L	4f#/ 4a	>
8F#\ 8A 8d	.	.
8F#\J 8A 8d	8r	]
8r	8f#/	.
=15	=15	=15
.	(8qg/	.
8BB\L	16f#/LL)	.
.	16e#X/J	.
8D\J 8F# 8B	8f#/J	<
8D\L	8f#/L 8dd	.
8F#\J 8B	8f#/J 8dd	[[
!!LO:LB:g=original	!	!
=16	=16	=16
8E\L	4g/ 4cc#	>
8G\ 8B	.	.
8G\J 8B	8r	]
8r	8b/	.
=17	=17	=17
.	(8qcc#/	.
8GG/L	16b/LL)	mf
.	16a#X/J	.
8BB/J 8E	8b/J	<
8GG#X/L	8cc#\L	.
8BB/J 8E	8dd\J	[[
=18	=18	=18
8AA/L	(8dd^>/L	.
8D/ 8F#	8f#/J)	.
8D/J 8F#	8f#/L	.
8r	8a/J	.
=19	=19	=19
8AA\L	(8a^>/L	.
8C#\J 8G	8e/J)	.
8AA\L	8e/L	.
8C#\J 8G 8A	8f#/J	.
=20	=20	=20
*>A1	*>A1	*>A1
8D\L	4.d/	.
8F#\ 8A	.	.
8F#\J 8A	.	.
8r	8f#/	p
=21:|!	=21:|!	=21:|!
*>A2	*>A2	*>A2
8D\L	4.d/	.
8F#\ 8A	.	.
8F#\J 8A	.	.
8r	8r	.
=22!|:	=22!|:	=22!|:
*>B	*>B	*>B
*k[f#c#g#]	*k[f#c#g#]	*
8AA\L	4e^>/ 4ee	ff
8C#\J 8E 8A	.	.
8EE/L	8f#\L 8ff#	.
8C#/J 8E 8A	8e\J 8ee	.
=23	=23	=23
8AA\L	8c#/L 8cc#	.
8C#\J 8E 8A	8e/J 8ee	.
8EE/L	4a\ 4aa	.
8C#/J 8E 8A	.	.
!!LO:LB:g=original	!	!
=24	=24	=24
8AA\L	4e^>/ 4ee	.
8C#\J 8E 8A	.	.
8EE/L	8f#\L 8ff#	.
8C#/J 8E 8A	8e\J 8ee	.
=25	=25	=25
8AA\L	8c#/L 8cc#	.
8C#\J 8E 8A	8e/J 8ee	.
8EE/L	4a\ 4aa	.
8C#/J 8E 8A	.	.
=26	=26	=26
8BB\L	8g#\L 8gg#	.
8D\J 8E 8G#	8f#\J 8ff#	.
8EE/L	4e/ 4ee	.
8D/J 8E 8G#	.	.
=27	=27	=27
8BB\L	8g#\L 8gg#	.
8D\J 8E 8G#	8f#\J 8ff#	.
8EE/L	4e/ 4ee	.
8D/J 8E 8G#	.	.
=28	=28	=28
8BB\L	8e\L 8ee	<
8D\J 8E 8G#	8f#\J 8ff#	.
8EE/L	8g#\L 8gg#	.
8D/J 8E 8G#	8b\J 8bb	[[
=29	=29	=29
8BB\L	4cc#^>\ 4ccc#	.
8D\J 8E 8G#	.	.
8EE/L	4b\ 4bb	.
8D/J 8E 8G#	.	.
=30	=30	=30
8AA\L	4e^>/ 4ee	.
8C#\J 8E 8A	.	.
8EE/L	8f#\L 8ff#	.
8C#/J 8E 8A	8e\J 8ee	.
=31	=31	=31
8AA\L	8c#/L 8cc#	.
8C#\J 8E 8A	8e/J 8ee	.
8EE/L	4a\ 4aa	.
8C#/J 8E 8A	.	.
!!LO:LB:g=original	!	!
=32	=32	=32
8BB\L	4f#^>\ 4ff#	.
8D\J 8F# 8B	.	.
8D\L	8gn\L 8ggn	.
8F#\J 8B	8f#\J 8ff#	.
=33	=33	=33
8BB\L	8d/L 8dd	.
8D\J 8F# 8B	8f#/J 8ff#	.
8D\L	4b\ 4bb	.
8F#\J 8B	.	.
=34	=34	=34
8E\L	8e\L 8ee	.
8A\J 8c#	8a\J 8aa	.
8E\L	4cc#^>\ 4ccc#	.
8A\J 8c#	.	.
=35	=35	=35
8E\L	8e\L 8ee	.
8A\J 8c#	8a\J 8aa	.
8E\L	4cc#^>\ 4ccc#	.
8A\J 8c#	.	.
=36	=36	=36
8E\L	8b\L 8bb	.
8G#\J 8d	8a#X\J 8aa#X	.
8E\L	8b\L 8bb	.
8G#\J 8d	8cc#\J 8ccc#	.
=37	=37	=37
*>B1	*>B1	*>B1
*	*	*^
8A\ 8c#	8a\ 8aa	.	.
8r	8r	.	.
!	!	!	!LO:DY:b=2
8AA\ 8E 8A	8cc#\ 8ee 8aa	fz	fz
8r	8r	.	.
*	*	*v	*v
=38:|!	=38:|!	=38:|!
*>B2	*>B2	*>B2
8A\ 8c#	8a/	.
8r	8r	.
!	!	!LO:DY:b=2
4AA\ 4C# 4E 4Gn	8r	fz
.	8f#/	p
!!LO:PB:g=original	!	!
*kcancel	*kcancel	*
=39||	=39||	=39||
*>C	*>C	*>C
*k[f#c#]	*k[f#c#]	*
!	!LO:TX:b:i:t=dolce	!
.	(8qg/	.
8D\L	16f#/LL)	.
.	16e#X/J	.
8F#\J 8A 8d	8f#/J	<
8F#\L	8f#/L 8b	.
8A\J 8d	8f#/J 8b	[[
=40	=40	=40
8D\L	4f#/ 4a	>
8F#\ 8A 8d	.	.
8F#\J 8A 8d	8r	]
8r	8f#/	.
=41	=41	=41
.	(8qg/	.
8D\L	16f#/LL)	.
.	16e#X/J	.
8F#\J 8A 8d	8f#/J	<
8F#\L	8f#/L 8dd	.
8A\J 8d	8f#/J 8dd	[[
=42	=42	=42
8E\L	4g/ 4cc#	>
8G\ 8B	.	.
8G\J 8B	8r	]
8r	8g/ 8b	.
=43	=43	=43
.	(8qcc#/	<
8GG/L	16g/LL) 16b	.
.	16a#X/J	.
8BB/J 8E	8b/J	.
8GG/L	8g/L 8cc#	.
8BB/J 8E	8g/J 8cc#	[[
=44	=44	=44
8AA\L	8g/L 8b	>
8C#\ 8G	8g/J 8b	.
8C#\J 8G	8e/L 8g	.
8r	8g/J 8b	]]
=45	=45	=45
.	(8qcc#/	<
8C#\L	16g/LL) 16b	.
.	16a#X/J	.
8E\J 8G 8A	8b/J	.
8AA\L	8g/L 8cc#	.
8E\J 8G 8A	8g/J 8cc#	[[
=46	=46	=46
8D\L	8f#/L 8b	>
8F#\ 8A	8f#/J 8b	.
8F#\J 8A	8f#/L 8a	.
8r	8f#/J	]]
!!LO:LB:g=original	!	!
=47	=47	=47
!	!LO:TX:i:b:t=dolce	!
.	(8qg/	p
8D\L	16f#/LL)	.
.	16e#X/J	.
8F#\J 8A 8d	8f#/J	<
8F#\L	8f#/L 8b	.
8A\J 8d	8f#/J 8b	[[
=48	=48	=48
8D\L	4f#/ 4a	>
8F#\ 8A 8d	.	.
8F#\J 8A 8d	8r	]
8r	8f#/	.
=49	=49	=49
.	(8qg/	.
8BB\L	16f#/LL)	.
.	16e#X/J	.
8D\J 8F# 8B	8f#/J	<
8D\L	8f#/L 8dd	.
8F#\J 8B	8f#/J 8dd	[[
=50	=50	=50
8E\L	4g/ 4cc#	>
8G\ 8B	.	.
8G\J 8B	8r	]
8r	8b/	.
=51	=51	=51
.	(8qcc#/	.
8GG/L	16b/LL)	mf
.	16a#X/J	.
8BB/J 8E	8b/J	<
8GG#X/L	8cc#\L	.
8BB/J 8E	8dd\J	[[
=52	=52	=52
8AA/L	(8dd^>/L	.
8D/ 8F#	8f#/J)	.
8D/J 8F#	8f#/L	.
8r	8a/J	.
=53	=53	=53
8AA\L	(8a^>/L	.
8C#\J 8G	8e/J)	.
8AA\L	8e/L	.
8C#\J 8G 8A	8f#/J	.
=54	=54	=54
8D\L	4.d/	.
8F#\ 8A	.	.
8F#\J 8A	.	.
!!LO:LB:g=original	!	!
=||	=||	=||
*k[f#]	*k[f#]	*
!	!LO:TX:i:b:t=dol.	!
!	!LO:TX:a:B:t=TRIO.	!
8r	(8d/	p
=55!|:	=55!|:	=55!|:
8GG\L	8b\L)	<
8BB\J 8D 8G	8b\J	.
8BB\L	8b\L	.
8D\J 8G	8b\J	[[
=56	=56	=56
8C\L	8b^>m/L	.
8E\ 8A	16a/L	.
.	16g#X/JJ	.
8E\J 8A	8.a/L	.
8r	.	.
.	16gn/Jk	.
=57	=57	=57
8D\L	8f#\L	.
8F#\J 8A 8c	8cc\J 8ee	<
8F#\L	8cc\L 8ee	.
8A\J 8c 8d	8cc\J 8ee	[[
=58	=58	=58
8G\L	4.b^>\ 4.dd	.
8B\ 8d	.	.
8B\J 8d	.	.
8r	8g\ 8gg	.
=59	=59	=59
8C\L	8g\L 8gg	<
8E\J 8A	8g\J 8gg	.
8C\L	8g\L 8gg	.
8E\J 8A	8g\J 8gg	[[
=60	=60	=60
8D\L	8g\L 8gg	.
8A\ 8c	16ff#\L	.
.	16ee#X\JJ	.
8A\J 8c	8ff#\L	.
8r	8dd\J 8ff#	.
=61	=61	=61
8D\L	8dd\L 8ff#	>
8F#\J 8A 8c	8cc\J 8ee	.
8F#\L	8cc\L 8ee	.
8A\J 8c 8d	8a\J 8cc	]]
=62	=62	=62
8G\L	4.g/ 4.b	.
8B\ 8d	.	.
8B\J 8d	.	.
8r	(8d/	p
!!LO:LB:g=original	!	!
=63	=63	=63
8GG\L	8b\L)	.
8BB\J 8D 8G	8b\J	<
8BB\L	8b\L	.
8D\J 8G	8b\J	[[
=64	=64	=64
8C\L	8b^>m/L	.
8E\ 8A	16a/L	.
.	16g#X/JJ	.
8E\J 8A	8.a/L	.
8r	.	.
.	16gn/Jk	.
=65	=65	=65
8D\L	8f#\L	<
8F#\J 8A 8c	8cc\J 8ee	.
8F#\L	8cc\L 8ee	.
8A\J 8c 8d	8cc\J 8ee	[[
=66	=66	=66
8G\L	4.b^>\ 4.dd	.
8B\ 8d	.	.
8B\J 8d	.	.
8r	8g\ 8gg	.
=67	=67	=67
8C\L	8g\L 8gg	<
8E\J 8A	8g\J 8gg	.
8C#X\L	8g\L 8gg	.
8E\J 8G 8A	8g\J 8gg	[[
=68	=68	=68
8D\L	8g\L 8gg	.
8F#\ 8A	16ff#\L	.
.	16ee#X\JJ	.
8F#\J 8A	8.ff#\L	.
8r	.	.
.	16gg\Jk	.
=69	=69	=69
8AA\L	8ff#\L	.
8C#X\J 8G	8ee\J	.
8AA\L	8b\L	.
8E\J 8G	8cc#X\J	.
=70	=70	=70
*>C1	*>C1	*>C1
8D\ 8F#	8dd\	.
8r	8r	.
!	!	!LO:DY:b=2
4D\ 4F# 4A 4cn	8r	fz
.	8d/	p
!	!	!
=71:|!	=71:|!	=71:|!
*>C2	*>C2	*>C2
8D\ 8F#	8dd\	.
8r	8r	.
4r	8dd\L	p
.	8bb\J	.
=72!|:	=72!|:	=72!|:
*>D	*>D	*>D
8GG\L	8dd\L	.
8BB\J 8D 8G	8bb\J	.
8BB\L	8dd\L	.
8D\J 8G	8bb\J	.
=73	=73	=73
.	(>8qdd/	.
8GG\L	4ccc^>\)	.
8BB\ 8D 8G	.	.
8BB\ 8D 8G	8dd\L	.
8BB\J 8D 8G	8bb\J	.
=74	=74	=74
8GG\L	8aa#X\L	.
8BB\J 8D 8G	8bb\J	.
8BB\L	8ccc\L	.
8D\J 8G	8bb\J	.
=75	=75	=75
.	(>8qbb/	.
8C\L	4ee^>\)	.
8E\J 8A	.	.
8C\L	8ee\L	.
8E\J 8A	8aa\J	.
=76	=76	=76
8D\L	8gg#X\L	.
8F#\J 8c	8aa\J	.
8D\L	8gg#\L	.
8F#\J 8c	8aa\J	.
=77	=77	=77
.	(>8qff#/	.
8D\L	4bb^>\)	.
8F#\ 8A 8c	.	.
8F#\ 8A 8c	8bb\L	.
8F#\J 8A 8c	8aa\J	.
=78	=78	=78
8F#\L	8aa\L	.
8A\J 8c 8d	8a\J 8cc	.
8D\L	8dd\L 8ff#	.
8F#\J 8A 8c 8d	8cc\J 8ee	.
!!LO:PB:g=original	!	!
=79	=79	=79
8G\L	4b^>\ 4dd	.
8B\ 8d	.	.
8B\ 8d	8dd\L	.
8B\J 8d	8bb\J	.
=80	=80	=80
*	*tremolo	*
8GG\L	8dd\L	<
8BB\J 8D 8G	8bb\	.
8BB\L	8dd\	.
8D\J 8G	8bb\J	.
=81	=81	=81
.	(>8qdd/	.
8GG/L	4ccc^>\)	.
8BB/ 8D 8G	.	.
8BB/ 8D 8G	8dd\L	[
8BB/J 8D 8G	8bb\J	.
=82	=82	=82
8GG\L	8aa#X\L	<
8BB\J 8D 8G	8bb\J	.
8BB\L	8ccc\L	[ >
8D\J 8G	8bb\J	.
=83	=83	=83
.	(8qbb/	.
8C\L	4ee^>\)	.
8E\J 8A	.	.
4r	8ee\L	] p
.	8eee\J	.
=84	=84	=84
8AA\L	8ddd\L	.
8C\J 8E 8A	8ccc\J	.
8C\L	8bb\L	.
8E\J 8A	8aa\J	.
=85	=85	=85
.	(>8qgg/	.
8D\L	4ggg^>\)	.
8G\ 8B	.	.
8G\ 8B	8bb\L	.
8G\J 8B	8eee\J	.
!!LO:LB:g=original	!	!
=86	=86	=86
8D\L	4ddd^>\	.
8F#\ 8c	.	.
8F#\ 8c	8aa\L	.
8F#\J 8c	8eee\J	.
=87	=87	=87
8GG\L	4ddd^>\	.
8G\J 8B	.	.
4r	8ee\L	.
.	8eee\J	.
=88	=88	=88
8C\L	8ddd\L	mf <
8E\J 8A	8ccc\J	.
8C#X\L	8bb\L	.
8E\J 8A	8aa\J	.
=89	=89	=89
.	(>8qgg/	.
8D\L	4ggg^>\)	.
8G\ 8B	.	.
8G\ 8B	8bb\L	[
8G\J 8B	8eee\J	.
=90	=90	=90
8D\L	4ddd^>\	.
8F#\J 8c	.	.
8D\L	8aa\L	.
8F#\J 8c	8ddd\J	.
=91	=91	=91
*>D1	*>D1	*>D1
8G\ 8B	8gg\	.
8r	8r	.
4r	8dd\L	p
.	8bb\J	.
=92	=92	=92
*>D2	*>D2	*>D2
*	*	*^
8G\ 8B	8gg\	.	.
8r	8r	.	.
!	!	!	!LO:DY:b=2
8GG\ 8D 8G	8b\ 8dd 8gg	fz	fz
*	*	*v	*v
!!LO:LB:g=original	!	!
=||	=||	=||
*>E	*>E	*>E
*k[f#c#]	*k[f#c#]	*
!	!LO:TX:a:B:t=CODA.	!
8A\	8a/	f
=93	=93	=93
16A\LL	16a/LL	<
16F#\J	16f#/J	.
8A\J	8a/J	.
8A\L 8d	8dd\L	.
!	!LO:TX:t=P:problem: wydrapane trzy kolejne takty	!
8A\J	8a\Jyy	.
=94	=94	=94
4f#\	4ff#\	.
4r	4r	[
=95	=95	=95
*	*	*^
!	!	!	!LO:DY:b=2
8AA\ 8C# 8E 8G	8cc#\ 8ee 8aa	fz	fz
8r	8r	.	.
8A\	8a/	.	.
8r	8r	.	.
*	*	*v	*v
=96	=96	=96
8A\	8a/	.
8r	8r	.
8r;	8r;	.
8r	8f#/	.
=97!|:	=97!|:	=97!|:
!	!LO:TX:i:b:t=dolce	!
.	(8qg/	.
8D\L	16f#/LL)	.
.	16e#X/J	.
8F#\J 8A 8d	8f#/J	<
*	*Xtremolo	*
8F#\L	8f#/L 8b	.
8A\J 8d	8f#/J 8b	[[
=98	=98	=98
8D\L	4f#/ 4a	>
8F#\ 8A 8d	.	.
8F#\J 8A 8d	8r	]
8r	8f#/	.
=99	=99	=99
.	(8qg/	.
8D\L	16f#/LL)	.
.	16e#X/J	.
8F#\J 8A 8d	8f#/J	<
8F#\L	8f#/L 8dd	.
8A\J 8d	8f#/J 8dd	[[
=100	=100	=100
8E\L	4g/ 4cc#	>
8G\ 8B	.	.
8G\J 8B	8r	]
8r	8g/ 8b	<
=101	=101	=101
.	(8qcc#/	.
8GG/L	16g/LL) 16b	.
.	16a#X/J	.
8BB/J 8E	8b/J	.
8GG/L	8g/L 8cc#	.
8BB/J 8E	8g/J 8cc#	[[
!!LO:LB:g=original	!	!
=102	=102	=102
8AA\L	8g/L 8b	>
8C#\ 8G	8g/J 8b	.
8C#\J 8G	8e/L 8g	.
8r	8g/J 8b	]]
=103	=103	=103
.	(8qcc#/	<
8C#\L	16g/LL) 16b	.
.	16a#X/J	.
8E\J 8G 8A	8b/J	.
8AA\L	8g/L 8cc#	.
8E\J 8G 8A	8g/J 8cc#	[[
=104	=104	=104
8D\L	8f#/L 8b	>
8F#\ 8A	8f#/J 8b	.
8F#\J 8A	8f#/L 8a	.
8r	8f#/J	]]
=105	=105	=105
.	(8qg/	.
8D\L	16f#/LL)	p
.	16e#X/J	.
8F#\J 8A 8d	8f#/J	.
!	!LO:TX:i:b:t=dolce	!LO:HP:a
8F#\L	8f#/L 8b	<
8A\J 8d	8f#/J 8b	[[
=106	=106	=106
!	!	!LO:HP:a
8D\L	4f#/ 4a	>
8F#\ 8A 8d	.	.
8F#\J 8A 8d	8r	]
8r	8f#/	.
=107	=107	=107
.	(8qg/	.
8BB\L	16f#/LL)	.
.	16e#X/J	.
8D\J 8F# 8B	8f#/J	.
8D\L	8f#\L 8dd	<
8F#\J 8B	8f#\J 8dd	[[
=108	=108	=108
8E\L	4g/ 4cc#	>
8G\ 8B	.	.
8G\J 8B	8r	]
8r	8b/	.
=109	=109	=109
.	(8qcc#/	.
8GG/L	16b/LL)	mf
.	16a#X/J	.
8BB/J 8E	8b/J	<
8GG#X/L	8cc#\L	.
8BB/J 8E	8dd\J	[[
=110	=110	=110
8AA/L	(8dd^>\L	.
8D/ 8F#	8f#\J)	.
8D/J 8F#	8f#/L	.
8r	8a/J	.
=111	=111	=111
8AA/L	(8a^>/L	.
8C#/J 8G	8e/J)	.
8AA/L	8e/L	.
8C#/J 8G 8A	8f#/J	.
!!LO:LB:g=original	!	!
=112	=112	=112
!	!	!LO:HP:b:t=poco crescendo_:ext=ud
8D\L 8F# 8A	8d/L	<
8D\ 8F# 8A	8d/J	.
.	(8qe/	.
8D\ 8F# 8A	16d/LL)	.
.	16c#X/J	.
8D\J 8F# 8A	8d/J	.
=113	=113	=113
8D\L 8F# 8A	2f#^>/	.
8D\ 8F# 8A	.	.
8D\ 8F# 8A	.	.
8D\J 8F# 8A	.	.
=114	=114	=114
8D\L 8F# 8A	8f#/L	.
8D\ 8F# 8A	8f#/J	.
.	(8qg/	.
8D\ 8F# 8A	16f#/LL)	.
.	16e#X/J	.
8D\J 8F# 8A	8f#/J	.
=115	=115	=115
8D\L 8F# 8A	2a^>/	.
8D\ 8F# 8A	.	.
8D\ 8F# 8A	.	.
8D\J 8F# 8A	.	.
=116	=116	=116
8D\L 8F# 8A	8a/L	.
8D\ 8F# 8A	8a/J	.
.	(8qb/	.
8D\ 8F# 8A	16a/LL)	.
.	16g#X/J	.
8D\J 8F# 8A	8a/J	.
=117	=117	=117
8D\ 8F# 8A	8dd\	.
*clefG2	*	*
8f#/L 8a 8dd	8ff#\L 8aa 8ddd	>
8f#/ 8a 8dd	8ff#\ 8aa 8ddd	.
8d/J 8f# 8a	8dd\J 8ff# 8aa	.
=118	=118	=118
!	!LO:TX:a:i:t=poco rit.	!
8d/L 8f# 8a	8dd\L 8ff# 8aa	.
8A/ 8d 8f#	8a\ 8dd 8ff#	.
8A/J 8d 8f#	8a\ 8dd 8ff#	.
*clefF4	*	*
8F#\ 8A 8d	8f#\J 8a 8dd	.
=119	=119	=119
*	*	*^
4F#\ 4A 4d	4f#/ 4a 4dd	.	.
8r	8r;	]	.
!	!LO:TX:B:a:t=Lento.	!	!LO:DY:b=2
8A\	8a/	f	f
*	*	*v	*v
=120	=120	=120
4d;\	4dd;\	.
8r	8r	.
8AA/	8A/	pp
=121	=121	=121
4D;\	4d;/	.
8r	8r	.
!	!LO:TX:a:i:t=a tempo	!
8D\ 8F# 8A	8d/ 8f# 8a	ff
=122	=122	=122
8D\ 8F# 8A	8f#/ 8a 8dd	.
8r	8r	.
8D\ 8F# 8A	8a\ 8dd 8ff#	.
8r	8r	.
=123	=123	=123
2DD;/ 2AA 2D	2F#;/ 2A 2d	.
==	==	==
*-	*-	*-
!!!system-decoration: {(s1,s2)}
!!!RDF**kern: > = above
!!!RDF**kern: < = below
!!!ENC: Berenika Jozajtis
!!!END: 2022-08-15
!!!ENC: Jan Barakat
!!!END: 2022-09-15
